src/assets/svg/icons/fa/nuevos/classic/duotone/calendar-exclamation classic duotone.svg

<svg xmlns="http://www.w3.org/2000/svg" viewBox="0 0 448 512"><!--! Font Awesome Pro 6.4.0 by @fontawesome - https://fontawesome.com License - https://fontawesome.com/license (Commercial License) Copyright 2023 Fonticons, Inc. --><defs><style>.fa-secondary{opacity:.4}</style></defs><path class="fa-primary" d="M96 32c0-17.7 14.3-32 32-32s32 14.3 32 32V64H288V32c0-17.7 14.3-32 32-32s32 14.3 32 32V64h48c26.5 0 48 21.5 48 48v80H0V112C0 85.5 21.5 64 48 64H96V32zm96 400a32 32 0 1 1 64 0 32 32 0 1 1 -64 0zm56-176v96c0 13.3-10.7 24-24 24s-24-10.7-24-24V256c0-13.3 10.7-24 24-24s24 10.7 24 24z"/><path class="fa-secondary" d="M0 192H448V464c0 26.5-21.5 48-48 48H48c-26.5 0-48-21.5-48-48V192zM256 432a32 32 0 1 0 -64 0 32 32 0 1 0 64 0zm-8-176c0-13.3-10.7-24-24-24s-24 10.7-24 24v96c0 13.3 10.7 24 24 24s24-10.7 24-24V256z"/></svg>

<svg xmlns="http://www.w3.org/2000/svg" viewBox="0 0 448 512"><defs><style>.fa-secondary{opacity:.4}</style></defs><path class="fa-primary" d="M96 32C96 14.33 110.3 0 128 0C145.7 0 160 14.33 160 32V64H288V32C288 14.33 302.3 0 320 0C337.7 0 352 14.33 352 32V64H400C426.5 64 448 85.49 448 112V192H0V112C0 85.49 21.49 64 48 64H96V32zM256 432C256 449.7 241.7 464 224 464C206.3 464 192 449.7 192 432C192 414.3 206.3 400 224 400C241.7 400 256 414.3 256 432zM248 352C248 365.3 237.3 376 224 376C210.7 376 200 365.3 200 352V256C200 242.7 210.7 232 224 232C237.3 232 248 242.7 248 256V352z"/><path class="fa-secondary" d="M0 192H448V464C448 490.5 426.5 512 400 512H48C21.49 512 0 490.5 0 464V192zM224 400C206.3 400 192 414.3 192 432C192 449.7 206.3 464 224 464C241.7 464 256 449.7 256 432C256 414.3 241.7 400 224 400zM248 256C248 242.7 237.3 232 224 232C210.7 232 200 242.7 200 256V352C200 365.3 210.7 376 224 376C237.3 376 248 365.3 248 352V256z"/></svg>
